X:40
T:Some Say the Devil is Dead
M:C
K:G
L:1/8
D2 D>E G>AB>A|GE ~E2 cE ~E2|D2 D>E G>AB>c|d>ed>B ~A2 G2 :|
d2 d>c B>c d2|~e2 e>d e>f g2|1 d2 d>cB>c d>B|G>AB>G ~A2 G2 :|
E:lw 350
|2 d>eg>d (3efg d>B|G>AB>G ~A2 G2 ||
E:lw 0
